X:1
T:Če na poljane rosa pade
T:Benjamin Ipavec (1829-1908)
T:Josip Murn
T:Če na poljane rosa pade
T:Copyright © 
T:Copyright © 
C:Benjamin Ipavec
C:(1829-1908)
Z:Josip Murn
Z:Copyright ©
%%score 1 { ( 2 5 6 ) | ( 3 4 ) }
L:1/8
Q:1/4=100
M:4/4
K:Bb
V:1 treble-8 nm="Voice" snm="Voice"
V:2 treble nm="Piano" snm="Pno."
V:5 treble 
V:6 treble 
V:3 bass 
V:4 bass 
V:1
"^Moderato" z8 | z8 | z8 | z8 |!p!"^a tempo" G2 GA B2 B2 | E2 (EF) G2 G!mf!G | %6
w: ||||Če na po- lja- ne|ro- sa _ pa- de, po-|
!<(! F2 FG!<)! A2 GF | B2 z2 z4 |!p! G2 GA B2 B2 | E2 (EF)!<(! G2 G!<)!G | c2 (cd)!f! e2 (dc) | %11
w: lja- na lju- be- ča ble-|šči,|če na pol- ja- ne|sla- na _ pa- de, po-|mlad jo _ o- ži- *|
 B2 z2 z2!p! B2 | B3 B FF^FF |"^cresc.  poco a poco" G2 G2 z2 B2 | B3 B ^F2 G2 | _A4 z2 B2 | %16
w: vi. Ko|sta- nji, li- pe ze- le-|ni- jo, če|ptič jim po- je|maj, ko-|
 B3 B =BBcc | _d2 d2 z2!<)!!<(! =B2 |"^ritard." c3 =B!f! cc=dd | e4 z4 |!p!"^a tempo" G2 GA B2 B2 | %21
w: sta- nji, li- pe go- vo-|ri- jo, da|vse, da vse se vr- ne|kdaj.|Le ti, po- mlad, ki|
 E2 (EF) G2 GG | _A2 (AB) c2 (cB) |!mf! =A2 (Bc) d4 |"^cresc." B2 Bc d2 d2 | G2 (GA) B2 BB | %26
w: v\_sr- ce _ si- ješ, le|ti ne _ pri- deš _|več na- * zaj?|Ah, če en- krat sa-|mo se _ skri- ješ, u-|
 A2 (A!<(!B) c2!f! (c!<)!d) |"^ritard." e3!>(! d!>)! !fermata!d4 | z8 | z8 |] %30
w: mr- la _ si za _|ve- ko- maj?|||
V:2
"^Moderato" [B,G]2 ([B,G][CA])!<(! [DB]2 [DB]2!<)! | [B,G]2 [B,G]2 [B,D]4 | %2
 [CE]2!<(! ([CE][DF])!<)! [EG]2 [CEG]2 |"^ritard." [C^F]2!>(! !arpeggio![CFB]4!>)! [CFA]2 | %4
 [B,DG]2 ([B,G][CA]) [DB]2 [DB]2 | [CE]2 ([CE][DF]) [CEG]2 [B,-EG]2 | [B,EF]2 (FG) [G,EFA]2 (GF) | %7
 [DB]2 ([DB][Ec]) ([Ec]2 [DB]2) | [B,G]2 ([B,G][CA]) [DB]2 [DB]2 | %9
 [CE]2 ([CE][CF]) [=B,G]2 [B,FG]2 | [EGc]2 (cd) e2 dc | %11
!>(! [DB][B,B][B,B][B,B]!>)! [B,B][B,B]!p![B,B][B,B] | (F2 =E2 F2 ^F2) | (G2 ^F2 G2 G2) | %14
 (G4 ^F2 G2) | (_A2 G2 A2 =A2) | BA [B,B][B,B] [DG=B][DGB][EGc][EGc] | %17
 [EG_d][EGd][EGd][EGd] [EGd][EGd] [E=B][EB] | [Ec][Ec][Ec][E=B] [Ec][Ec][E=A=d][EAd] | %19
!>(! [EAe][EAe][EAe][Gc-] [Gce][Gce]!>)![^Fcd][Fcd] | [B,DG]4 [DB]4 | [CE]4 [=B,G]4 | %22
 [F_A]2 [FA][GB] [Ac]2 [Ac][GB] | =A2 Bc d4- | d4 [DBd]2 [DBd]2 | %25
 [EG]2 ([EG][FA]) [B,GB]2 [B,GB]2 | A2 (AB) c2 ([Gc][Bd]) | (e3 d) !fermata![DBd]4 | %28
 A2 (AB) c2 (cB) | [CGA]2 (AB) !fermata![B,G]4 |] %30
V:3
!p! D, D,2 D,2 D,2 D, |!>(! E, G,2 G,!>)! G,, G,2 G, | C, G,2 G, A,, A,2 A, | D, D2 D2 D2 D | %4
!p! G,, D,2 D,2 D,2 D, | C, G,2 G,2 G,2 G, |!mf! F,, F,2 F,2 F,2 F, | B,, F,2 F, ^F,, D,2 D, | %8
!p! D, G,2 G,2 G,2 G, | C, G,2 G,!<(! G,, G,2!<)! G, | C, G,2 G,!f! F,, F,2 F, | B,,2 z2 z4 | %12
 D,2 ^C,2 D,2 x2 |"^cresc.  poco a poco" F,2 E,2 F,2 B,,2- | =E,2 B,,2 ^D,2 E,2 | %15
 F,2 =E,2 F,2 ^F,2 | G,^F, G,4- G,2 | B,,2 B,4 G,2 | _A,3 G,!f! A,2 _G,2 | [F,,F,]3 E, D,2 D2 | %20
!p!"^a tempo" G,4 [B,,F,]4 | [_A,,_A,]4 [G,,D,]4 |!<(! F,4!<)! _F,4 |!mf! E,4 D,3 C, | %24
"^cresc." B,,G,- G,2 G,,G,-G,F, | E,E,,- E,,2- E,,E,-E,D, | C,C,,!<(! CB, A,A,,!<)!!f! A,G, | %27
"^ritard." F,3!>(! F,!>)! F,4 |!pp! C,"^a tempo"C,, CB, A,A,, A,2 | D,2 D,2- !fermata![G,,D,]4 |] %30
V:4
 G,,8 | E,4 G,,4 | C,4 A,,4 | D,8 | G,,8 | C,8 | F,,8 | B,,4 ^F,,4 | [G,,D,]8 | C,4 G,,4 | %10
 C,4 F,,4 | x8 | x6 B,,2- | B,,6 B,,2 | B,,2 B,,2- B,,4- | B,,8- | B,,2 G,4 C,2 | x8 | x8 | x8 | %20
 x8 | x8 | x8 | x8 | B,,3 A,, x4 | x8 | x8 | F,F,,- F,,B,, !fermata!B,,4 | x8 | D,D,,- D,,2 x4 |] %30
V:5
 x8 | x8 | x8 | x8 | x8 | x8 | x2 [A,E]2 x2 [G,D]2 | x8 | x8 | x8 | x8 | x8 | %12
 [B,B][B,B][B,B][B,B] [B,B][B,B][B,B][B,B] | [B,B][B,B][B,B][B,B] [B,B][B,B][B,B][B,B] | %14
 [B,B][B,B][B,B][B,B] [B,B][B,B][B,B][B,B] | [B,B][B,B][B,B][B,B] [B,B][B,B][B,B][B,B] | %16
 [B,B][B,B] x6 | x8 | x8 | x8 | x8 | x8 | C8- | [CGA]6 [C^FA]2 | [GB]2 ([GB][Ac]) x4 | B,4 x4 | %26
 [EG]2 [EG]2 [EG]2 E2 | B2 (AB) x4 | [EG]2 [EG]2 [EG]2 [EG]2 | x2 [C^F]2 x4 |] %30
V:6
 x8 | x8 | x8 | x8 | x8 | x8 | x8 | x8 | x8 | x8 | x8 | x8 | x8 | x8 | x8 | x8 | x8 | x8 | x8 | %19
 x8 | x8 | x8 | x8 | x8 | D4 x4 | x8 | x8 | (E3 D) x4 | x8 | x8 |] %30

